X: 1
T: F\"orr bl\aast p\aa horn
R: Malungs-polska
O: efter Haga Olof Persson
N: Dated 1923 1923
M: 3/4
L: 1/8
K: Dm
|: "Dm"{E}F2 E>F E>{FE}D | "A7"^CE "Dm"D4 | "Dm"{e}f>g a2 fa | "A7"{a}g2 {ag}e4 :: "Dm"{e}f>g a2 fa | "A7"ge ^c2 eg |
| "Dm"fe d2 "G"=Bd | "A"~^cz A4 | "Dm"{e}f>g a2 fa | "A7"ge ^c2 a2 | "A7"ag fe "Dm"de | "A7"~^cz "Dm"d4 :|



